X: 153
T: Carles Salley
%R: march
Z: 2017 John Chambers <jc:trillian.mit.edu>
B: John Treat - "Gamut for the Fifes", 1779, p.15 #3
F: https://archive.org/details/GamutFortheFifes
M: C
L: 1/8
K: G
% - - - - - - - - - - - - - - - - - - - - - - - - -
|:\
G/A/B/c/ dB cedG | AB cB/A/ GFGD |\
G/A/B/c/ dB cedG | AB cB/A/ GFG2 :|
|:\
gg gb/g/ eee2 | aa aa/g/ fdd2 |\
geea fddg | ecAd BGG2 :|
% - - - - - - - - - - - - - - - - - - - - - - - - -
